lib/flags/mk-north-macedonia.svg

<svg xmlns="http://www.w3.org/2000/svg" fill="none" aria-hidden="true" viewBox="0 0 42 30"><g id="Country=MK - North Macedonia, Size=sm (36x24)" filter="url(#filter0_dd_91_26508)"><g clip-path="url(#clip0_91_26508)"><g id="flag"><mask id="mask0_91_26508" width="36" height="24" x="3" y="2" maskUnits="userSpaceOnUse" style="mask-type:alpha"><rect id="mask" width="36" height="24" x="3" y="2" fill="white"/></mask><g mask="url(#mask0_91_26508)"><g id="contents"><path id="background" fill="#F50100" fill-rule="evenodd" d="M3 2V26H39V2H3Z" clip-rule="evenodd"/><mask id="mask1_91_26508" width="36" height="24" x="3" y="2" maskUnits="userSpaceOnUse" style="mask-type:alpha"><path id="background_2" fill="white" fill-rule="evenodd" d="M3 2V26H39V2H3Z" clip-rule="evenodd"/></mask><g mask="url(#mask1_91_26508)"><path id="Combined Shape" fill="#FFD018" fill-rule="evenodd" d="M3.00001 1.958L3.00001 6.04192L18.75 11.9932L6.66214 1.958L3.00001 1.958ZM21 14L24.375 1.99997H17.625L21 14ZM21 14L17.625 26H24.375L21 14ZM3.00001 21.9512L3.00001 26.0351H6.66214L18.75 16L3.00001 21.9512ZM39 6.06631V1.98239L35.3379 1.98239L23.25 12.0176L39 6.06631ZM39 26.0595V21.9756L23.25 16.0243L35.3379 26.0595H39ZM39 11L25.5 14L39 17V11ZM16.5 14L3 11V17L16.5 14Z" clip-rule="evenodd"/><path id="Oval 2" fill="#FFD018" stroke="#F50100" stroke-width="2" d="M21 19C23.9236 19 26.5 16.8689 26.5 14C26.5 11.1311 23.9236 9 21 9C18.0764 9 15.5 11.1311 15.5 14C15.5 16.8689 18.0764 19 21 19Z"/></g></g></g></g></g></g><defs><filter id="filter0_dd_91_26508" width="42" height="30" x="0" y="0" color-interpolation-filters="sRGB" filterUnits="userSpaceOnUse"><feFlood flood-opacity="0" result="BackgroundImageFix"/><feColorMatrix in="SourceAlpha" result="hardAlpha" values="0 0 0 0 0 0 0 0 0 0 0 0 0 0 0 0 0 0 127 0"/><feOffset dy="1"/><feGaussianBlur stdDeviation="1"/><feColorMatrix values="0 0 0 0 0.0627451 0 0 0 0 0.0941176 0 0 0 0 0.156863 0 0 0 0.06 0"/><feBlend in2="BackgroundImageFix" result="effect1_dropShadow_91_26508"/><feColorMatrix in="SourceAlpha" result="hardAlpha" values="0 0 0 0 0 0 0 0 0 0 0 0 0 0 0 0 0 0 127 0"/><feOffset dy="1"/><feGaussianBlur stdDeviation="1.5"/><feColorMatrix values="0 0 0 0 0.0627451 0 0 0 0 0.0941176 0 0 0 0 0.156863 0 0 0 0.1 0"/><feBlend in2="effect1_dropShadow_91_26508" result="effect2_dropShadow_91_26508"/><feBlend in="SourceGraphic" in2="effect2_dropShadow_91_26508" result="shape"/></filter><clipPath id="clip0_91_26508"><rect width="36" height="24" x="3" y="2" fill="white" rx="2"/></clipPath></defs></svg>

<svg xmlns="http://www.w3.org/2000/svg" fill="none" aria-hidden="true" viewBox="0 0 42 30"><g filter="url(#a)"><g clip-path="url(#b)"><mask id="c" width="36" height="24" x="3" y="2" maskUnits="userSpaceOnUse" style="mask-type:alpha"><path fill="#fff" d="M3 2h36v24H3z"/></mask><g mask="url(#c)"><path fill="#F50100" fill-rule="evenodd" d="M3 2v24h36V2H3Z" clip-rule="evenodd"/><mask id="d" width="36" height="24" x="3" y="2" maskUnits="userSpaceOnUse" style="mask-type:alpha"><path fill="#fff" fill-rule="evenodd" d="M3 2v24h36V2H3Z" clip-rule="evenodd"/></mask><g fill="#FFD018" mask="url(#d)"><path fill-rule="evenodd" d="M3 1.958v4.084l15.75 5.951L6.662 1.958H3ZM21 14l3.375-12h-6.75L21 14Zm0 0-3.375 12h6.75L21 14ZM3 21.951v4.084h3.662L18.75 16 3 21.951ZM39 6.066V1.982h-3.662L23.25 12.018 39 6.066Zm0 19.993v-4.083l-15.75-5.952L35.338 26.06H39ZM39 11l-13.5 3L39 17v-6Zm-22.5 3L3 11v6l13.5-3Z" clip-rule="evenodd"/><path stroke="#F50100" stroke-width="2" d="M21 19c2.924 0 5.5-2.131 5.5-5S23.924 9 21 9s-5.5 2.131-5.5 5 2.576 5 5.5 5Z"/></g></g></g></g><defs><clipPath id="b"><rect width="36" height="24" x="3" y="2" fill="#fff" rx="2"/></clipPath><filter id="a" width="42" height="30" x="0" y="0" color-interpolation-filters="sRGB" filterUnits="userSpaceOnUse"><feFlood flood-opacity="0" result="BackgroundImageFix"/><feColorMatrix in="SourceAlpha" result="hardAlpha" values="0 0 0 0 0 0 0 0 0 0 0 0 0 0 0 0 0 0 127 0"/><feOffset dy="1"/><feGaussianBlur stdDeviation="1"/><feColorMatrix values="0 0 0 0 0.0627451 0 0 0 0 0.0941176 0 0 0 0 0.156863 0 0 0 0.06 0"/><feBlend in2="BackgroundImageFix" result="effect1_dropShadow_91_26508"/><feColorMatrix in="SourceAlpha" result="hardAlpha" values="0 0 0 0 0 0 0 0 0 0 0 0 0 0 0 0 0 0 127 0"/><feOffset dy="1"/><feGaussianBlur stdDeviation="1.5"/><feColorMatrix values="0 0 0 0 0.0627451 0 0 0 0 0.0941176 0 0 0 0 0.156863 0 0 0 0.1 0"/><feBlend in2="effect1_dropShadow_91_26508" result="effect2_dropShadow_91_26508"/><feBlend in="SourceGraphic" in2="effect2_dropShadow_91_26508" result="shape"/></filter></defs></svg>
